X:3130
T:Johnny Ward's
O:england
R:reel
D:Fisherstreet
M:C|
K:G
d2BG DGBG|A2FA ~D3B|d2BG DGBd|1 gafg egfe:|2 gafg egfg||
|:eA~A2 egfe|d2BG DGBd|eA~A2 egfa|1 gafg egfg:|2 gafg egfe||
